resources/haticons/SVG/store_mall_directory.svg

<!-- Generated by IcoMoon.io -->
<svg version="1.1" xmlns="http://www.w3.org/2000/svg" width="24" height="24" viewBox="0 0 24 24">
<title>store_mall_directory</title>
<path d="M12 18v-3.984h-6v3.984h6zM21 14.016h-0.984v6h-2.016v-6h-3.984v6h-10.031v-6h-0.984v-2.016l0.984-5.016h16.031l0.984 5.016v2.016zM20.016 3.984v2.016h-16.031v-2.016h16.031z"></path>
</svg>

<svg xmlns="http://www.w3.org/2000/svg" width="24" height="24"><path d="M12 18v-3.984H6V18h6zm9-3.984h-.984v6H18v-6h-3.984v6H3.985v-6h-.984V12l.984-5.016h16.031L21 12v2.016zm-.984-10.032V6H3.985V3.984h16.031z"/></svg>
